public/partnerLogos/digit.svg

<?xml version="1.0" encoding="ISO-8859-1" standalone="yes"?>
<svg xmlns="http://www.w3.org/2000/svg" xmlns:xlink="http://www.w3.org/1999/xlink" width="844.759" height="1040.5">
  <defs> 
	<marker id="ArrowEnd" viewBox="0 0 10 10" refX="0" refY="5" 
		markerUnits="strokeWidth" 
		markerWidth="4" 
		markerHeight="3" 
		orient="auto"> 
		<path d="M 0 0 L 10 5 L 0 10 z" /> 
	</marker>
	<marker id="ArrowStart" viewBox="0 0 10 10" refX="10" refY="5" 
		markerUnits="strokeWidth" 
		markerWidth="4" 
		markerHeight="3" 
		orient="auto"> 
		<path d="M 10 0 L 0 5 L 10 10 z" /> 
	</marker> </defs>
<g>
<g>
<g>
<g>
<path style="stroke:#000000; stroke-width:0.216; fill:#000000" d="M 456.934 209.578C 435.727 200.845 416.143 199.349 393.689 202.966C 393.44 203.091 392.815 203.216 392.565 202.841C 391.818 201.345 390.57 197.477 390.071 195.731C 387.077 184.38 387.826 170.408 390.945 159.056C 397.68 135.106 409.905 115.646 425.499 96.5605C 438.596 80.4684 457.058 57.8896 457.058 35.3117C 457.058 34.9373 456.684 34.0641 457.308 34.0641C 458.056 34.0641 457.931 34.5629 458.306 35.3117C 463.295 49.4081 465.54 61.3825 465.417 76.1024C 465.291 84.3354 468.909 83.8363 461.674 100.677C 454.19 117.892 445.582 135.106 435.852 150.699C 432.483 155.938 430.238 159.68 427.619 165.294C 425.623 169.535 425.748 172.778 425.872 177.394C 425.997 180.263 427.12 183.132 429.864 184.504C 431.86 185.627 435.977 185.502 438.097 184.254C 448.451 178.392 445.831 163.298 443.835 154.067C 443.71 153.817 443.71 153.318 443.835 152.819C 445.707 143.09 455.062 135.73 458.68 126.125C 459.678 123.38 460.925 121.135 462.422 125.75C 462.672 126.873 462.422 128.12 462.921 129.118C 468.784 145.459 474.023 160.428 472.9 178.267C 472.277 186.001 468.66 208.081 462.297 212.821C 462.172 212.945 457.433 209.827 456.934 209.578z"/>
<path style="stroke:#000000; stroke-width:0.216; fill:#000000" d="M 364.998 215.44C 364.998 215.44 364.873 215.44 364.749 215.316C 361.256 201.345 352.399 188.246 349.28 172.778C 349.28 168.163 349.28 163.423 349.28 158.683C 353.396 138.35 365.372 116.145 380.591 101.051C 383.834 96.9342 391.194 91.0717 391.818 85.3336C 395.185 68.6183 390.82 51.7773 393.814 34.5629C 394.686 32.0681 395.061 30.3217 395.934 27.8268C 400.924 18.5961 406.163 8.74146 413.647 1.13202C 413.647 4.12592 411.527 5.37323 411.402 8.99091C 411.402 29.1992 420.259 46.1646 429.24 64.1271C 431.236 67.3704 431.236 67.3704 431.61 68.2433C 431.61 68.6183 431.61 68.9921 431.61 69.4911C 426.495 80.2189 415.519 91.6953 408.907 102.423C 392.815 124.253 380.715 146.956 377.597 174.026C 377.597 182.758 377.722 190.367 379.343 198.6C 380.091 200.471 380.965 202.218 381.338 204.089C 381.714 204.588 382.087 205.086 382.586 205.71C 382.586 205.96 382.586 206.334 382.461 206.709C 376.848 208.455 371.11 212.072 366.245 215.44C 365.871 215.44 365.497 215.44 364.998 215.44z"/>
<path style="stroke:#000000; stroke-width:0.216; fill:#000000" d="M 358.885 114.898C 353.521 100.926 355.767 93.4417 359.759 79.4702C 363.75 68.2433 364.374 57.2661 363.875 45.2907C 363.376 42.4221 362.877 39.5529 362.254 36.559C 362.254 36.3098 362.378 35.5612 362.503 35.3117C 363.625 37.183 365.871 40.6754 367.742 42.0479C 379.967 54.3976 383.959 64.8756 383.959 82.8388C 383.959 84.3354 383.46 85.7077 381.464 87.4543C 376.599 92.6935 371.983 96.4352 359.26 115.397C 359.135 115.272 359.011 115.147 358.885 114.898z"/>
</g>
<path style="stroke:#000000; stroke-width:0.216; fill:#000000" d="M 526.041 229.91L 575.065 167.04L 617.229 191.49L 581.801 271.325L 581.052 270.951C 590.658 280.556 599.39 291.035 607.249 302.136L 679.35 270.078L 703.925 312.74L 637.187 361.264L 636.938 361.015C 641.304 373.863 644.547 387.211 646.667 401.058L 722.387 409.041L 722.387 457.816L 647.292 465.8L 647.292 465.55C 644.671 486.008 639.308 505.592 631.699 524.055L 632.446 522.807L 691.574 565.968L 667.125 608.132L 600.014 578.692C 588.537 593.411 575.315 606.759 560.719 618.36L 561.468 617.861L 592.404 687.093L 549.742 711.668L 505.832 650.793L 505.957 650.669C 488.743 657.904 470.655 663.143 451.694 666.011L 451.694 666.261L 433.357 746.097L 432.982 770.796C 442.088 775.536 448.326 784.768 448.326 795.495C 448.326 806.473 441.84 816.078 432.359 820.568L 431.736 862.732L 408.533 862.732L 407.535 820.818C 397.806 816.327 391.194 806.722 391.194 795.495C 391.194 784.768 397.306 775.536 406.412 770.796L 405.913 746.222L 406.163 746.097L 405.664 746.097L 387.326 667.01C 365.996 664.39 345.663 658.776 326.452 650.793L 281.295 712.416L 238.633 687.967L 270.318 617.487C 255.848 605.886 242.874 592.663 231.523 577.943L 232.396 579.441L 163.913 609.378L 139.463 567.216L 199.838 523.306L 200.462 524.303C 192.977 506.216 187.738 487.006 184.994 467.047L 108.526 459.063L 108.526 410.289L 185.368 401.931C 187.363 388.334 190.483 375.112 194.599 362.512L 194.349 363.011L 127.113 313.613L 151.812 271.45L 224.038 303.384L 223.789 303.758C 231.523 292.531 240.006 282.178 249.486 272.572L 213.809 192.737L 256.347 168.412L 304.123 231.033L 304.249 231.033L 335.684 293.53C 287.408 320.972 254.85 372.866 254.85 432.119C 254.85 506.84 306.119 569.461 375.352 586.925L 396.184 561.103L 388.574 324.965L 388.824 324.965L 388.824 324.84C 388.824 289.413 368.242 275.566 353.396 272.073C 350.902 270.202 348.157 268.83 349.28 262.593C 352.773 242.759 353.646 240.14 356.89 235.275C 358.761 234.402 359.759 233.403 359.883 232.281C 374.354 220.804 394.437 213.32 416.143 213.32C 436.975 213.32 455.685 219.806 469.657 229.91C 470.156 230.659 470.905 231.407 472.277 232.031C 475.521 236.771 476.393 239.391 479.887 259.35C 481.259 266.585 477.266 267.209 474.647 269.704C 474.522 269.954 474.273 270.202 474.023 270.453C 460.052 275.941 444.21 290.785 444.833 325.09C 444.958 325.713 444.833 326.337 444.708 326.837L 440.343 558.483L 461.799 584.555C 526.665 564.221 573.817 503.721 573.817 432.119C 573.817 373.739 542.133 322.594 495.104 294.777L 525.917 230.036L 526.166 230.16L 526.041 229.91z"/>
</g>
<g>
<path style="stroke:none; fill:#000000" d="M 0 1039.37L 96.8 1039.37L 96.8 888.677L 0 888.677L 0 1039.37z"/>
<path style="stroke:none; fill:#000000" d="M 107.029 1039.37L 203.705 1039.37L 203.705 888.677L 107.029 888.677L 107.029 1039.37z"/>
<path style="stroke:none; fill:#000000" d="M 213.809 1039.37L 310.61 1039.37L 310.61 888.677L 213.809 888.677L 213.809 1039.37z"/>
<path style="stroke:none; fill:#000000" d="M 320.714 1039.37L 417.39 1039.37L 417.39 888.677L 320.714 888.677L 320.714 1039.37z"/>
<path style="stroke:none; fill:#000000" d="M 427.494 1039.37L 524.17 1039.37L 524.17 888.677L 427.494 888.677L 427.494 1039.37z"/>
<path style="stroke:none; fill:#000000" d="M 641.054 1039.37L 737.855 1039.37L 737.855 888.677L 641.054 888.677L 641.054 1039.37z"/>
<path style="stroke:none; fill:#000000" d="M 747.959 1039.37L 844.759 1039.37L 844.759 888.677L 747.959 888.677L 747.959 1039.37z"/>
<path style="stroke:none; fill:#ffffff" d="M 64.8665 996.581L 64.8665 989.72C 61.623 994.959 56.8823 997.578 50.521 997.704L 50.521 990.219L 50.7703 990.219C 54.7625 990.219 58.1304 988.597 60.8743 985.354C 63.6189 982.111 65.1152 977.121 65.1152 970.384C 65.1152 963.025 63.6189 957.661 60.8743 954.169C 58.0051 950.8 54.6372 949.053 50.521 949.053L 50.521 941.57C 53.3901 941.694 55.8848 942.317 58.1304 943.565C 60.625 944.937 62.7461 946.683 64.3677 948.929L 64.3677 922.234L 73.3494 922.234L 73.3494 996.581L 64.8665 996.581zM 50.521 997.704C 50.3962 997.704 50.147 997.704 49.8975 997.704C 45.5312 997.704 41.6646 996.581 38.0459 994.211C 34.4285 991.842 31.6846 988.597 29.6887 984.356C 27.6931 980.115 26.6948 975.25 26.6948 969.636C 26.6948 964.273 27.5679 959.407 29.3142 955.041C 31.1851 950.675 33.8049 947.308 37.4224 944.937C 41.041 942.692 45.032 941.444 49.5227 941.444C 49.8975 941.444 50.271 941.444 50.521 941.57L 50.521 949.053L 50.271 949.053C 46.28 949.053 42.9114 950.675 40.1675 954.043C 37.4224 957.286 36.05 962.526 36.05 969.636C 36.05 976.622 37.5471 981.737 40.4163 985.105C 43.2861 988.473 46.6536 990.219 50.521 990.219L 50.521 997.704z"/>
<path style="stroke:none; fill:#ffffff" d="M 152.186 932.712L 152.186 922.234L 161.292 922.234L 161.292 932.712L 152.186 932.712L 152.186 932.712zM 152.186 996.581L 152.186 942.692L 161.292 942.692L 161.292 996.581L 152.186 996.581z"/>
<path style="stroke:none; fill:#ffffff" d="M 267.823 1012.3C 271.565 1012.17 274.435 1011.3 276.555 1009.8C 278.801 1008.06 280.422 1005.69 281.17 1002.69C 281.669 1000.82 281.919 996.955 281.795 990.967C 278.052 995.458 273.436 997.704 267.823 997.953L 267.823 990.468C 272.064 990.468 275.558 988.847 278.301 985.603C 281.17 982.36 282.667 977.37 282.667 970.384C 282.667 963.774 281.17 958.908 278.177 955.541C 275.308 952.172 271.815 950.551 267.823 950.551L 267.823 942.942C 273.81 943.191 278.801 945.686 282.667 950.675L 282.667 944.189L 291.15 944.189L 291.15 990.718C 291.15 999.075 290.277 1005.06 288.53 1008.56C 286.908 1012.05 284.164 1014.79 280.422 1016.79C 277.054 1018.66 272.813 1019.66 267.823 1019.78L 267.823 1012.3zM 245.494 1002.44L 254.351 1003.82C 254.725 1006.56 255.723 1008.56 257.47 1009.8C 259.715 1011.43 262.833 1012.3 266.7 1012.3C 267.075 1012.3 267.449 1012.3 267.823 1012.3L 267.823 1019.78C 267.449 1019.78 267.199 1019.91 266.825 1019.91C 260.338 1019.91 255.224 1018.41 251.232 1015.54C 247.241 1012.67 245.369 1008.31 245.494 1002.44L 245.494 1002.44zM 267.823 997.953C 267.574 997.953 267.199 997.953 266.95 997.953C 259.59 997.953 253.851 995.333 249.735 989.969C 245.744 984.605 243.623 978.244 243.623 970.759C 243.623 965.645 244.621 960.904 246.492 956.538C 248.363 952.172 250.982 948.804 254.6 946.434C 258.093 944.064 262.21 942.942 266.95 942.942C 267.325 942.942 267.574 942.942 267.823 942.942L 267.823 950.551L 267.699 950.551C 263.581 950.551 260.214 952.172 257.345 955.415C 254.476 958.784 253.104 963.649 253.104 970.135C 253.104 977.121 254.476 982.36 257.22 985.603C 260.089 988.847 263.581 990.468 267.823 990.468L 267.823 990.468L 267.823 997.953z"/>
<path style="stroke:none; fill:#ffffff" d="M 365.372 932.712L 365.372 922.234L 374.477 922.234L 374.477 932.712L 365.372 932.712L 365.372 932.712zM 365.372 996.581L 365.372 942.692L 374.477 942.692L 374.477 996.581L 365.372 996.581z"/>
<path style="stroke:none; fill:#ffffff" d="M 487.87 989.844L 489.242 997.828C 486.622 998.452 484.377 998.702 482.381 998.702C 479.013 998.702 476.393 998.202 474.647 997.08C 472.776 996.082 471.528 994.71 470.779 992.964C 470.032 991.342 469.657 987.724 469.657 982.235L 469.657 951.299L 462.921 951.299L 462.921 944.189L 469.657 944.189L 469.657 930.842L 478.764 925.352L 478.764 944.189L 487.87 944.189L 487.87 951.299L 478.764 951.299L 478.764 982.734C 478.764 985.354 478.888 986.976 479.138 987.724C 479.512 988.473 480.011 989.096 480.759 989.471C 481.508 989.969 482.506 990.219 483.877 990.219C 484.875 990.219 486.248 990.094 487.87 989.844z"/>
<path style="stroke:none; fill:#ffffff" d="M 681.096 997.953L 681.096 944.189L 689.329 944.189L 689.329 952.297C 691.326 948.555 693.321 945.936 695.067 944.813C 696.814 943.565 698.81 942.942 700.931 942.942C 704.049 942.942 707.167 943.939 710.286 945.81L 707.167 954.293C 704.922 953.046 702.677 952.297 700.432 952.297C 698.435 952.297 696.689 952.92 695.067 954.169C 693.571 955.415 692.449 957.037 691.7 959.158C 690.702 962.402 690.202 965.894 690.202 969.761L 690.202 997.953L 681.096 997.953z"/>
<path style="stroke:none; fill:#ffffff" d="M 777.773 1017.29L 776.65 1008.68C 778.769 1009.3 780.392 1009.55 781.889 1009.55C 784.009 1009.55 785.631 1009.18 786.753 1008.56C 788.002 1007.81 789 1006.93 789.747 1005.69C 790.371 1004.81 791.245 1002.44 792.616 998.826C 792.741 998.327 792.991 997.578 793.365 996.705L 773.032 942.692L 782.762 942.692L 793.989 973.878C 795.486 977.869 796.733 981.986 797.856 986.352C 798.979 982.111 800.227 978.119 801.723 974.127L 813.199 942.692L 822.305 942.692L 801.848 997.454C 799.602 1003.44 797.856 1007.43 796.733 1009.68C 795.111 1012.67 793.24 1014.92 791.12 1016.29C 789 1017.66 786.504 1018.41 783.635 1018.41C 781.889 1018.41 779.893 1018.04 777.773 1017.29z"/>
<path style="stroke:#000000; stroke-width:0.216; fill:#000000" d="M 534.273 1039.37L 630.95 1039.37L 630.95 888.677L 534.273 888.677L 534.273 1039.37z"/>
</g>
</g>
</g>
<g>
</g>
</svg>

<svg version="1.2" xmlns="http://www.w3.org/2000/svg" viewBox="0 0 845 1041" width="845" height="1041">
	<defs>
		<image  width="97" height="152" id="img1" href="data:image/png;base64,iVBORw0KGgoAAAANSUhEUgAAAGEAAACYBAMAAAAGtZpBAAAAAXNSR0IB2cksfwAAABVQTFRFAAAAAAAAAAAAAAAAAAAAAAAAAAAAEgEApAAAAAd0Uk5TUkH/ywBeS4s0jUYAAAEJSURBVHic7dZRDsIgEARQ218T4xFM7+T1SU9iVISyC7U7a2yCZvrXwstQWmCHg/M6D5NTnCgoKCgoKHYRsT1QUFD0LsZL7geK9PA2gyIGZIKIAp4EEepJAISMeISMtlibik2hIxCx3M+CbokU8fwSIg4QQY9wS0yqR27cECqihJiidJjcospcEfEuTpQK+b4Q7c0wa9G07yXka5irtk/RfI5eRdlPf1t0MLt9/ontGvQLa9X695J2ev3C3OH8++6rRwmxRT0K+zRIXXIIcOJUwwBONT2OpQ06z1MNAwh/zeCvSz6ofXQIJCTBajg5rgDWorKCQevd5ic3xfuLgoKCgoKC4h/E1SmOd7ctuimGMgjkAAAAAElFTkSuQmCC"/>
		<image  width="97" height="152" id="img2" href="data:image/png;base64,iVBORw0KGgoAAAANSUhEUgAAAGEAAACYBAMAAAAGtZpBAAAAAXNSR0IB2cksfwAAAB5QTFRFAAAAAAAAAAAAAAAAAAAAAAAAAAAAAAAAAAAAAAAAtyhvagAAAAp0Uk5TT1I69/+zAFteQprBLmgAAABYSURBVHic7dKxCYBAEERR18hA0BKuCIu7cq1EtABPWDBQ7v1gspdNxDqkWmJLipkgCIIgXhRjuebYCeJBtCP+Ib75K4IgCIIgCIK4E+0IgiAIguhT1KSYTqlotCkHGS2CAAAAAElFTkSuQmCC"/>
		<image  width="98" height="152" id="img3" href="data:image/png;base64,iVBORw0KGgoAAAANSUhEUgAAAGIAAACYBAMAAADtgiFCAAAAAXNSR0IB2cksfwAAAB5QTFRFAAAAAAAAAAAAAAAAAAAAAAAAAAAAAAAAAAAAAAAAtyhvagAAAAp0Uk5TD1IyMP+bABJeOZcJ6UYAAAFUSURBVHic7ddtDoIwDAZg4AQewfQMHs7TLsSDLKLjYy3QviWYqCl/ENyTfWR7N9r20riutr2FCBEiRIgQIUKECPFdoru+bwkWNP3IfcHDXRW0/Mw9IsYmlSshguqH/LAF8cfeFKxNc02aIPkCFa8yBImxUaUIIYJYCYLFND2mYVBEKTIXqHuliiSeNcEb1ch+7YmlUatmniBkN44IUetZou7GEWGsQb9YDW6IvxenzKvPzPYPr8HyvycZjuaVKxP9uSuz3Rb+/UNUgouxyLxTQ7tzQvfaA/u5/8ywWYkueCW5swWvJFlzV5LcQ4KdR/j8R86ioJD1/Zyg1cnbFs1WlrjFsopPE3VeiRe2kNli55VMPDOvVt86e2IiMt+UhOPn9mrsFFFfutiIknqwobxi2yKUV2xqAukjdl7kW42BvRVV1SKAmSWy/M99n4cIEWIQd694AjKgFLHKJmn4AAAAAElFTkSuQmCC"/>
		<image  width="98" height="152" id="img4" href="data:image/png;base64,iVBORw0KGgoAAAANSUhEUgAAAGIAAACYBAMAAADtgiFCAAAAAXNSR0IB2cksfwAAAB5QTFRFAAAAAAAAAAAAAAAAAAAAAAAAAAAAAAAAAAAAAAAAtyhvagAAAAp0Uk5TF1IgSP9jABpeJFc4pr0AAABSSURBVHic7dKxEYAgFERBPhVQgkVQHOVaiYMFiDNE4rAvuGyziyhpqohKEARBEB+KfNxznQTxIsYR/xBr/oogCIIgCIIgnsQ4giAIgiD2FG1WdPVAraLSSkflAAAAAElFTkSuQmCC"/>
		<image  width="98" height="152" id="img5" href="data:image/png;base64,iVBORw0KGgoAAAANSUhEUgAAAGIAAACYBAMAAADtgiFCAAAAAXNSR0IB2cksfwAAAB5QTFRFAAAAAAAAAAAAAAAAAAAAAAAAAAAAAAAAAAAAAAAAtyhvagAAAAp0Uk5TKVIOgf8rAC9eEP/sfkwAAACUSURBVHic7dddCoAgEEZRbQWtIMI1tLhWG65EKiR7GDGHBAvuvB8+/GMca0ejKmsXBAKBQCAQstymFM4oxTArxQGUwhmlOAEC8TdxPo1UwSOaingYKmG+eEsQCAQCgXglZA9sKmKHDn6YhCqKbM6TkMvvKO6fRrVIIdUihdSLi4jtLU2QWdB7rkUgEAgEAtFErFqxA5cwgqJdfjscAAAAAElFTkSuQmCC"/>
		<image  width="97" height="152" id="img6" href="data:image/png;base64,iVBORw0KGgoAAAANSUhEUgAAAGEAAACYBAMAAAAGtZpBAAAAAXNSR0IB2cksfwAAAB5QTFRFAAAAAAAAAAAAAAAAAAAAAAAAAAAAAAAAAAAAAAAAtyhvagAAAAp0Uk5TTVJG8f/aAFleUGIE/6oAAACYSURBVHic7dJdCoMwDMBx2ycfBvMEQ3qGHW6nLeJBZH4go7XEZMwJ8s9DITQ/mpA611SmuLunUdwQCAQCgUAgEIjjhW/HY+g0IiyVYcmiWoQ1TYgg+vZrkU4iCL9mWvEJ7eR/FdkKZRGnvVvEXOsfBhG3N7LI/+C+KD7xW1Fu6mxRHgOBQCAQiMsLKRAIBAKBQFxBvIyifgOUPHwp6BwI/AAAAABJRU5ErkJggg=="/>
		<image  width="98" height="152" id="img7" href="data:image/png;base64,iVBORw0KGgoAAAANSUhEUgAAAGIAAACYBAMAAADtgiFCAAAAAXNSR0IB2cksfwAAABtQTFRFAAAAAAAAAAAAAAAAAAAAAAAAAAAAAAAAAAAAlFHiIAAAAAl0Uk5TA1I+Cv/BAF5HzDhEsAAAAU1JREFUeJzt1lEOgjAQBFDgx1+PQDiDB/PEhpMQQ2qhdGdKty4mJuuHMWQfzGCt9P29U736/uHChQsXLly4cOHChb2Y1rfXcSQ7hsQyp2AYm0Ry6GuRRwAnqRTJkfzuipslzgFFWiSvYSBECHGKOpEW+17kKeTtrhKHRSBENlIr9hhy+RuI4wxYZ0TE5LKGiTgMgV8YETE62CnA7jO1iZAE1LARyZhGhPBoizQR+xxYIwWxpkc1oNgG9QLV4GKdrBbbpFrAGgWxzArxGdULWIP8O4fZNiFClcQ8KkT4DrsmIWqw55KpWchQdiIW0QtZw07EImoBalARYv1CgBr86RX/OM4EClVOdbGgNYwFDFVciRcLXqO4l2gEeIChYli60sJFYtw+4lAGYt8NSShTQUJxwS7BBbsEFfQSTHBAnhNpJCxOXi5cuPg/cXsqxRsA8t2RkfRPDgAAAABJRU5ErkJggg=="/>
	</defs>
	<style>
		.s0 { fill: #000000;stroke: #000000;stroke-width: .4 } 
	</style>
	<g>
		<g>
			<g>
				<g>
					<path class="s0" d="m456.93 209.58c-21.2-8.74-40.79-10.23-63.24-6.61-0.25 0.12-0.88 0.25-1.13-0.13-0.74-1.5-1.99-5.36-2.49-7.11-2.99-11.35-2.24-25.32 0.87-36.67 6.74-23.95 18.96-43.41 34.56-62.5 13.1-16.09 31.56-38.67 31.56-61.25 0-0.37-0.38-1.25 0.25-1.25 0.75 0 0.62 0.5 1 1.25 4.99 14.1 7.23 26.07 7.11 40.79-0.13 8.24 3.49 7.74-3.75 24.58-7.48 17.21-16.09 34.43-25.82 50.02-3.37 5.24-5.61 8.98-8.23 14.59-2 4.24-1.87 7.49-1.75 12.1 0.13 2.87 1.25 5.74 3.99 7.11 2 1.13 6.12 1 8.24-0.25 10.35-5.86 7.73-20.95 5.73-30.18-0.12-0.25-0.12-0.75 0-1.25 1.88-9.73 11.23-17.09 14.85-26.7 1-2.74 2.25-4.99 3.74-0.37 0.25 1.12 0 2.37 0.5 3.37 5.86 16.34 11.1 31.31 9.98 49.15-0.62 7.73-4.24 29.81-10.6 34.55-0.13 0.12-4.87-2.99-5.37-3.24z"/>
					<path class="s0" d="m365 215.44c0 0-0.13 0-0.25-0.12-3.49-13.97-12.35-27.07-15.47-42.54 0-4.62 0-9.36 0-14.1 4.12-20.33 16.09-42.54 31.31-57.63 3.24-4.12 10.6-9.98 11.23-15.72 3.37-16.71-1-33.55 1.99-50.77 0.88-2.49 1.25-4.24 2.12-6.73 4.99-9.23 10.23-19.09 17.72-26.7 0 3-2.12 4.24-2.25 7.86 0 20.21 8.86 37.17 17.84 55.14 2 3.24 2 3.24 2.37 4.11 0 0.38 0 0.75 0 1.25-5.11 10.73-16.09 22.21-22.7 32.93-16.09 21.83-28.2 44.54-31.31 71.61 0 8.73 0.12 16.34 1.74 24.57 0.75 1.87 1.62 3.62 2 5.49 0.37 0.5 0.75 1 1.25 1.62 0 0.25 0 0.62-0.13 1-5.61 1.75-11.35 5.36-16.21 8.73-0.38 0-0.75 0-1.25 0z"/>
					<path class="s0" d="m358.88 114.9c-5.36-13.97-3.11-21.46 0.88-35.43 3.99-11.23 4.61-22.2 4.12-34.18-0.5-2.87-1-5.74-1.63-8.73 0-0.25 0.13-1 0.25-1.25 1.13 1.87 3.37 5.37 5.24 6.74 12.23 12.35 16.22 22.83 16.22 40.79 0 1.5-0.5 2.87-2.5 4.61-4.86 5.24-9.48 8.99-22.2 27.95-0.13-0.13-0.25-0.25-0.38-0.5z"/>
				</g>
				<path class="s0" d="m526.04 229.91l49.03-62.87 42.16 24.45-35.43 79.83-0.75-0.37c9.61 9.61 18.34 20.09 26.2 31.19l72.1-32.06 24.57 42.66-66.73 48.52-0.25-0.25q6.55 19.28 9.73 40.05l75.72 7.98v48.78l-75.1 7.98v-0.25c-2.62 20.46-7.98 40.04-15.59 58.5l0.75-1.24 59.12 43.16-24.44 42.16-67.12-29.44c-11.47 14.72-24.69 28.07-39.29 39.67l0.75-0.5 30.93 69.23-42.66 24.58-43.91-60.88 0.13-0.12c-17.22 7.23-35.3 12.47-54.27 15.34v0.25l-18.33 79.84-0.38 24.7c9.11 4.74 15.35 13.97 15.35 24.7 0 10.97-6.49 20.58-15.97 25.07l-0.62 42.16h-23.21l-0.99-41.91c-9.73-4.49-16.35-14.1-16.35-25.32 0-10.73 6.12-19.96 15.22-24.7l-0.5-24.58 0.25-0.12h-0.5l-18.33-79.09c-21.33-2.62-41.67-8.23-60.88-16.22l-45.15 61.63-42.67-24.45 31.69-70.48c-14.47-11.6-27.45-24.83-38.8-39.55l0.88 1.5-68.49 29.94-24.45-42.16 60.38-43.91 0.62 0.99c-7.48-18.08-12.72-37.29-15.47-57.25l-76.46-7.99v-48.77l76.84-8.36c1.99-13.6 5.11-26.82 9.23-39.42l-0.25 0.5-67.24-49.4 24.7-42.16 72.23 31.93-0.25 0.38c7.73-11.23 16.22-21.58 25.7-31.19l-35.68-79.83 42.54-24.33 47.77 62.62h0.13l31.43 62.5c-48.27 27.44-80.83 79.34-80.83 138.59 0 74.72 51.27 137.34 120.5 154.8l20.83-25.82-7.61-236.14h0.25v-0.12c0-35.43-20.58-49.27-35.42-52.77-2.5-1.87-5.24-3.24-4.12-9.48 3.49-19.83 4.37-22.45 7.61-27.32q2.81-1.31 2.99-2.99c14.47-11.48 34.56-18.96 56.26-18.96 20.84 0 39.55 6.49 53.52 16.59 0.5 0.75 1.24 1.5 2.62 2.12 3.24 4.74 4.11 7.36 7.61 27.32 1.37 7.23-2.62 7.86-5.24 10.35-0.13 0.25-0.38 0.5-0.63 0.75-13.97 5.49-29.81 20.34-29.19 54.64 0.13 0.62 0 1.25-0.12 1.75l-4.37 231.64 21.46 26.07c64.86-20.33 112.02-80.83 112.02-152.43 0-58.38-31.69-109.53-78.72-137.34l30.82-64.74 0.25 0.12z"/>
			</g>
			<g>
				<use  href="#img1" x="0" y="888"/>
				<use  href="#img2" x="107" y="888"/>
				<use  href="#img3" x="213" y="888"/>
				<use  href="#img4" x="320" y="888"/>
				<use  href="#img5" x="427" y="888"/>
				<use  href="#img6" x="641" y="888"/>
				<use  href="#img7" x="747" y="888"/>
				<path class="s0" d="m534.27 1039.37h96.68v-150.69h-96.68z"/>
			</g>
		</g>
	</g>
	<g>
	</g>
</svg>
